X:1
T:Title
%%score { 1 | ( 2 3 ) }
L:1/8
Q:1/4=100
M:4/4
K:F
V:1 treble nm="Grand Piano"
V:2 bass 
V:3 bass 
V:1
 A3 G FCF[EG] | A4 c4 | c3 d cFEF | [EG]6 z2 | A3 G FCF[EG] | [FA]4 [Fc]4 | %6
w: Carl~Fischer * * * * *||||||
 [Fd]3 [Fd] [Fc][A,F][B,EG][CEA] | [A,F]6 z2 | [EG]3 [_E^F] [=EG][=FA][GB]G | A3 _A =AB[Ac]A | %10
w: ||||
 d3 c BAGF | [EG]6 z2 | A3 G FCF[EG] | [FA]4 [Fc]4 | [Fd]3 [Fd] [Fc][A,F][B,EG][CEA] | %15
w: |||||
[M:8/4] [A,F]8 z8 |] %16
w: |
V:2
 [F,CF]3 [F,B,C] [F,A,C][F,A,][F,A,C][C,C] | [F,CF]4 [F,A,F]4 | %2
 [F,A,F]3 [F,B,F] [F,A,F][A,C][G,B,C][F,A,C] | [C,C]6 z2 | %4
 [F,CF]3 [F,B,C] [F,A,C][F,A,][F,A,C][C,C] | [F,C]4 [F,A,]4 | [B,,B,]3 [B,,B,] [C,A,]C,C,C, | %7
 F,6 z2 | [C,C]3 [C,C] [C,C]2 z E | [F,CF]3 [F,=B,F] FG z F | %10
 [B,F]3 [A,CF][K:bass] [G,CE][F,CF][E,C][D,=B,D] | [C,C]6 z2 | %12
 [F,CF]3 [F,B,C] [F,A,C][F,A,][F,A,C][C,C] | [F,C]4 [F,A,]4 | [B,,B,]3 [B,,B,] [C,A,]C,C,C, | %15
[M:8/4] F,8 z8 |] %16
V:3
 x8 | x8 | x8 | x8 | x8 | x8 | x8 | x8 | z4 z2 [C,C]2 | z4 [F,C]2 [F,C]2 | x4[K:bass] x4 | x8 | %12
 x8 | x8 | x8 |[M:8/4] x16 |] %16

